X:79
T:The Dunmore lasses
T:The road to Knock
R:Reel
O:Ireland
B:Ceol Rince 1 n189
S:My arrangement from various sources
Z:Transcription, arrangement, chords:Mike Long
M:C|
L:1/8
K:G
"Em"E2EF GFGA|Be~e2 Bee2|EDEF GABG|"D"(3(ABc) BA GEFD|\
"Em"E2EF GFGA|
Beed e2ef|"G"(3(gfe) fd edBG|[1 "D"(3(ABc) BA GEFD:|[2 "D"(3(ABc) BA GE ef|]
|:"Em"gfeg "D"fede|"Em"Be~e2 Beef|"Em"gfeg "D"fedB|"Am"(3(ABc) BA "(Em)"GE E2|\
"Em"gfeg "D"fede|
"Em"Beed e2ef|"G"(3(gfe) fd edBG|[1 "D"(3(ABc) BA GE ef:|[2 "D"(3(ABc) BA GEFD|]
